X: 748
T: Father Dollard's Favorite
M:6/8
L:1/8
B:O'Neill's 748
R:Jig
Z:"Transcribed by Bob Safranek, rjs@gsp.org"
N:"Collected by Dollard"
K:D
   DFA dcd | AFA BGE | DFA dcd | AFA     gfe    |
   DFA dcd | AFA BGE | afd bge | AFD TE2 D :|
|: fef gfg | afd AFD | fef gfg | DFA TB2 A  |
   fef gfg | afd bge | fga Bcd | AFD TE2 D :|


